X:1
T:Embarcadero, 76.76.76 D
T:Embarcadero, 76.76.76 D
T:D. T. Browne, 1899
T:Public Domain Courtesy of the Cyber Hymnal™
C:D. T. Browne, 1899
Z:Public Domain
Z:Courtesy of the Cyber Hymnal™
%%score ( 1 2 ) ( 3 4 )
L:1/8
Q:1/4=95
M:6/8
K:Bb
V:1 treble 
V:2 treble 
V:3 bass 
V:4 bass 
V:1
 ([B,D][DF])[DB] [Fd]2 [Ec] | ([DB][B,D])[EG] [DF]3 | [FA]2 [FB] [Ec]2 [EF] | [DB]3 [DF]3 | %4
 ([B,D][DF])[DB] [Fd]2 [Ec] | ([DB][B,D])[EG] [DF]3 | (FA)[Ec] (FA)[Ec] | [Ec]3 [DB]3 | %8
 (DG)[DA] (BA)[DG] | [Dd]2 [DB] [DG]3 | [Fc]2 [Fd] ([Ec][DB])[FA] | (GAG) F3 | %12
 ([B,D][DF])[DB] [Fd]2 [Ec] | ([DB][B,D])[EG] [DF]3 | (FA)[Ec] (FA)[Ec] | [Ec]3 [DB]3 | %16
 [Ac]2 [^G=B] [Ac]2 [FA] | (FG)[CE] [B,D]3 | [Ac]2 [^G=B] [Ac]2 [FA] | (GAG) F3 | %20
 ([B,D][DF])[DB] [Fd]2 [Fc] | ([DB][B,D])[EG] [DF]3 | (FA)[Ec] (FA)[Ec] | [Ec]3 !fermata![DB]3 |] %24
V:2
 x6 | x6 | x6 | x6 | x6 | x6 | E2 E2 x2 | x6 | B,2 D2 x2 | x6 | x6 | =E3 (F2 _E) | x6 | x6 | %14
 E2 E2 x2 | x6 | x6 | E2 x4 | x6 | =E2 (F2 _E) x | x6 | x6 | E2 E2 x2 | x6 |] %24
V:3
 [B,,F,]2 [B,,F,] [B,,B,]2 [B,,B,] | [B,,F,]2 [B,,B,] [B,,B,]3 | [F,C]2 [F,B,] [F,A,]2 [F,A,] | %3
 [B,,B,]3 [B,,B,]3 | [B,,F,]2 [B,,F,] [B,,B,]2 [B,,B,] | [B,,F,]2 [B,,B,] [B,,B,]3 | %6
 (A,C)[F,C] (A,C)[F,C] | [F,A,]3 [B,,B,]3 | (B,G,)[D,^F,] (G,C)[G,B,] | [B,,G,]2 [D,G,] [G,B,]3 | %10
 [F,A,]2 [F,B,] (A,B,)[F,C] | (C2 B,) [F,A,]3 | [B,,B,]2 [B,,B,] [B,,B,]2 [B,,B,] | %13
 [B,,F,]2 [B,,B,] [B,,B,]3 | (A,C)[F,C] (A,C)[F,C] | [F,A,]3 [B,,B,]3 | F,2 F, F,2 [F,C] | %17
 [F,C]2 [F,A,] [B,,B,]3 | F,2 F, F,2 [F,C] | (C2 B,) [F,A,]3 | [B,,B,]2 [B,,B,] [B,,B,]2 [B,,B,] | %21
 [B,,F,]2 [B,,B,] [B,,B,]3 | (A,C)[F,C] (A,C)[F,C] | [F,A,]3 !fermata![B,,B,]3 |] %24
V:4
 x6 | x6 | x6 | x6 | x6 | x6 | F,2 F,2 x2 | x6 | G,,2 G,2 x2 | x6 | x3 F,2 x | C,3 x3 | x6 | x6 | %14
 F,2 F,2 x2 | x6 | F,2 F, F,2 x | x6 | F,2 F, F,2 x | C,3 x3 | x6 | x6 | F,2 F,2 x2 | x6 |] %24

